Obsidian/places/16s/folder-sound.svg

<svg height="16" width="16" xmlns="http://www.w3.org/2000/svg"><path d="m13.375 0-7.375 1.90625c-.554.1484439-1 .738957-1 1.3125v9.09375c-.5617711-.294156-1.283256-.413102-2.03125-.21875-1.3497637.350711-2.19558448 1.484152-1.90625 2.53125.2893345 1.047098 1.6189863 1.631961 2.96875 1.28125 1.0768335-.279795 1.8191167-1.071448 1.9375-1.90625l.03125-8.59375 7-1.875v6.78125c-.561771-.294156-1.283256-.4131024-2.03125-.21875-1.3497637.350711-2.1955845 1.484152-1.90625 2.53125s1.618986 1.631961 2.96875 1.28125c1.076834-.279795 1.819117-1.071448 1.9375-1.90625l.03125-11.1875c0-.43015725-.265844-.75198835-.625-.8125z" fill="#bebebe"/></svg>

<?xml version="1.0" encoding="UTF-8" standalone="no"?>
<!-- Created with Inkscape (http://www.inkscape.org/) -->

<svg
   xmlns:dc="http://purl.org/dc/elements/1.1/"
   xmlns:cc="http://creativecommons.org/ns#"
   xmlns:rdf="http://www.w3.org/1999/02/22-rdf-syntax-ns#"
   xmlns:svg="http://www.w3.org/2000/svg"
   xmlns="http://www.w3.org/2000/svg"
   xmlns:sodipodi="http://sodipodi.sourceforge.net/DTD/sodipodi-0.dtd"
   xmlns:inkscape="http://www.inkscape.org/namespaces/inkscape"
   version="1.1"
   width="16"
   height="16"
   id="svg3079"
   inkscape:version="0.48.3.1 r9886"
   sodipodi:docname="folder-music-symbolic.svg">
  <sodipodi:namedview
     pagecolor="#ffffff"
     bordercolor="#666666"
     borderopacity="1"
     objecttolerance="10"
     gridtolerance="10"
     guidetolerance="10"
     inkscape:pageopacity="0"
     inkscape:pageshadow="2"
     inkscape:window-width="640"
     inkscape:window-height="480"
     id="namedview7"
     showgrid="false"
     inkscape:zoom="14.75"
     inkscape:cx="8"
     inkscape:cy="8"
     inkscape:window-x="0"
     inkscape:window-y="26"
     inkscape:window-maximized="0"
     inkscape:current-layer="svg3079" />
  <defs
     id="defs3081" />
  <metadata
     id="metadata3084">
    <rdf:RDF>
      <cc:Work
         rdf:about="">
        <dc:format>image/svg+xml</dc:format>
        <dc:type
           rdf:resource="http://purl.org/dc/dcmitype/StillImage" />
        <dc:title />
      </cc:Work>
    </rdf:RDF>
  </metadata>
  <g
     id="layer1"
     style="color:#bebebe;fill:#bebebe;fill-opacity:1;fill-rule:nonzero;stroke:none;stroke-width:1;marker:none;visibility:visible;display:inline;overflow:visible;enable-background:accumulate">
    <path
       d="M 13.375,0 6,1.90625 C 5.446,2.0546939 5,2.645207 5,3.21875 L 5,12.3125 C 4.4382289,12.018344 3.716744,11.899398 2.96875,12.09375 1.6189863,12.444461 0.77316552,13.577902 1.0625,14.625 1.3518345,15.672098 2.6814863,16.256961 4.03125,15.90625 5.1080835,15.626455 5.8503667,14.834802 5.96875,14 L 6,5.40625 l 7,-1.875 0,6.78125 C 12.438229,10.018344 11.716744,9.8993976 10.96875,10.09375 9.6189863,10.444461 8.7731655,11.577902 9.0625,12.625 c 0.2893345,1.047098 1.618986,1.631961 2.96875,1.28125 C 13.108084,13.626455 13.850367,12.834802 13.96875,12 L 14,0.8125 C 14,0.38234275 13.734156,0.06051165 13.375,0 z"
       inkscape:connector-curvature="0"
       id="rect2996"
       style="color:#bebebe;fill:#bebebe;fill-opacity:1;fill-rule:nonzero;stroke:none;stroke-width:1;marker:none;visibility:visible;display:inline;overflow:visible;enable-background:accumulate" />
  </g>
</svg>
